X: 6
T: King William's March  v.1
P: piffero primo b0046
O: Robinson 1818
R: march
F: http://ancients.sudburymuster.org/mus/ssp/pdf/ashgroveF.pdf
Z: 2019 John Chambers <jc:trillian.mit.edu>
M: 2/4
L: 1/16
K: Ador
cB |\
A2e2 e2ge | dcBA G2AB | c2A2 edcB | A4 E2cB |\
A2e2 e2ge | dcBA G2AB | c2A2 edcB | A4 z2  :|
|: d2 |\
e3f  g3a  | g2e2 d4   | efg2 a2b2 | a4 e2e2 |\
g2a2 g2e2 | dcBA G2AB | c2A2 edcB | A4 z2  :|


